packages/kaspersky-hexa-ui-icons/src/iconsSVGs/48/PasswordManager.svg

<svg xmlns="http://www.w3.org/2000/svg" width="48" height="48" fill="none" viewBox="0 0 48 48"><path fill="currentColor" fill-rule="evenodd" d="M31.138 31.724c-1.547 0-3.086-.243-4.573-.724l-.582-.188-2.085 2.085-1.682-1.683L7.43 46H2v-5.429l2-2v-2.563l3-.002V32h4v-3h2.571l3.215-3.215-1.681-1.682 2.085-2.085-.189-.582c-.48-1.486-.724-3.025-.724-4.573C16.277 8.667 22.944 2 31.138 2 39.333 2 46 8.667 46 16.863c0 8.194-6.667 14.861-14.862 14.861m0-31.724C21.84 0 14.277 7.565 14.277 16.863c0 1.552.215 3.096.642 4.597l-2.644 2.643 1.683 1.682L12.742 27H9v3H5v4.016l-3-.023v3.75l-2 2V48h8.258l13.958-13.958 1.682 1.683 2.642-2.643c1.502.426 3.046.642 4.598.642C40.436 33.724 48 26.161 48 16.863S40.436 0 31.138 0M18.873 27.713l1.414 1.414-12.58 12.58-1.414-1.414zM35 15c-1.102 0-2-.897-2-2 0-1.102.898-2 2-2 1.103 0 2 .898 2 2 0 1.103-.897 2-2 2m0-6c-2.206 0-4 1.794-4 4s1.794 4 4 4 4-1.794 4-4-1.794-4-4-4" clip-rule="evenodd"/></svg>

<svg width="48" height="48" viewBox="0 0 48 48" fill="none" xmlns="http://www.w3.org/2000/svg">
<path fill-rule="evenodd" clip-rule="evenodd" d="M31.138 31.724C29.591 31.724 28.052 31.481 26.565 31L25.983 30.812L23.898 32.897L22.216 31.214L7.43 46H2V40.571L4 38.571V36.008L7 36.006V32H11V29H13.571L16.786 25.785L15.105 24.103L17.19 22.018L17.001 21.436C16.521 19.95 16.277 18.411 16.277 16.863C16.277 8.667 22.944 2 31.138 2C39.333 2 46 8.667 46 16.863C46 25.057 39.333 31.724 31.138 31.724ZM31.138 0C21.84 0 14.277 7.565 14.277 16.863C14.277 18.415 14.492 19.959 14.919 21.46L12.275 24.103L13.958 25.785L12.742 27H9V30H5V34.016L2 33.993V37.743L0 39.743V48H8.258L22.216 34.042L23.898 35.725L26.54 33.082C28.042 33.508 29.586 33.724 31.138 33.724C40.436 33.724 48 26.161 48 16.863C48 7.565 40.436 0 31.138 0ZM18.873 27.713L20.287 29.127L7.707 41.707L6.293 40.293L18.873 27.713ZM35 15C33.898 15 33 14.103 33 13C33 11.898 33.898 11 35 11C36.103 11 37 11.898 37 13C37 14.103 36.103 15 35 15ZM35 9C32.794 9 31 10.794 31 13C31 15.206 32.794 17 35 17C37.206 17 39 15.206 39 13C39 10.794 37.206 9 35 9Z"  fill="currentColor"/>
</svg>
